icons/camera-17.svg

<svg width="16" height="17" viewBox="0 0 16 17" fill="none" xmlns="http://www.w3.org/2000/svg">
<path fill-rule="evenodd" clip-rule="evenodd" d="M8 6.16638C6.61929 6.16638 5.5 7.28567 5.5 8.66638C5.5 10.0471 6.61929 11.1664 8 11.1664C9.38071 11.1664 10.5 10.0471 10.5 8.66638C10.5 7.28567 9.38071 6.16638 8 6.16638ZM6.5 8.66638C6.5 7.83795 7.17157 7.16638 8 7.16638C8.82843 7.16638 9.5 7.83795 9.5 8.66638C9.5 9.49481 8.82843 10.1664 8 10.1664C7.17157 10.1664 6.5 9.49481 6.5 8.66638Z" fill="#272431"/>
<path fill-rule="evenodd" clip-rule="evenodd" d="M6.5 3.16638C6.33282 3.16638 6.17671 3.24993 6.08397 3.38903L5.23241 4.66638H3.5C3.10218 4.66638 2.72064 4.82442 2.43934 5.10572C2.15804 5.38703 2 5.76856 2 6.16638V11.6664C2 12.0642 2.15804 12.4457 2.43934 12.727C2.72064 13.0083 3.10217 13.1664 3.5 13.1664H12.5C12.8978 13.1664 13.2794 13.0083 13.5607 12.727C13.842 12.4457 14 12.0642 14 11.6664V6.16638C14 5.76856 13.842 5.38703 13.5607 5.10572C13.2794 4.82442 12.8978 4.66638 12.5 4.66638H10.7676L9.91603 3.38903C9.82329 3.24993 9.66718 3.16638 9.5 3.16638H6.5ZM5.91603 5.44373L6.76759 4.16638H9.23241L10.084 5.44373C10.1767 5.58283 10.3328 5.66638 10.5 5.66638H12.5C12.6326 5.66638 12.7598 5.71906 12.8536 5.81283C12.9473 5.9066 13 6.03377 13 6.16638V11.6664C13 11.799 12.9473 11.9262 12.8536 12.0199C12.7598 12.1137 12.6326 12.1664 12.5 12.1664H3.5C3.36739 12.1664 3.24022 12.1137 3.14645 12.0199C3.05268 11.9262 3 11.799 3 11.6664V6.16638C3 6.03377 3.05268 5.9066 3.14645 5.81283C3.24021 5.71906 3.36739 5.66638 3.5 5.66638H5.5C5.66718 5.66638 5.82329 5.58283 5.91603 5.44373Z" fill="#272431"/>
</svg>

<svg xmlns="http://www.w3.org/2000/svg" width="16" height="17" viewBox="0 0 16 17"><path fill-rule="evenodd" d="M8 6.166a2.5 2.5 0 100 5 2.5 2.5 0 000-5zm-1.5 2.5a1.5 1.5 0 113 0 1.5 1.5 0 01-3 0z"/><path fill-rule="evenodd" d="M6.5 3.166a.5.5 0 00-.416.223l-.852 1.277H3.5a1.5 1.5 0 00-1.5 1.5v5.5a1.5 1.5 0 001.5 1.5h9a1.5 1.5 0 001.5-1.5v-5.5a1.5 1.5 0 00-1.5-1.5h-1.732L9.916 3.39a.5.5 0 00-.416-.223h-3zm-.584 2.278l.852-1.278h2.464l.852 1.278a.5.5 0 00.416.222h2a.5.5 0 01.5.5v5.5a.5.5 0 01-.5.5h-9a.5.5 0 01-.5-.5v-5.5a.5.5 0 01.5-.5h2a.5.5 0 00.416-.222z"/></svg>
